X:79
M:2/4
L:1/8
Q:1/4=120
K:Bb
|:f/e/d/e/ ff|fbba|aggf|fe d2|f/e/f/g/ f>f|fbBe|d2c2|B4:|
|:f(f/e/) de|f>bf>b|a/g/f/e/ d>e|fd B2|\
f(f/e/) de|f/g/a/b/ b/f/d/B/|d2Tc2|B4 :|

